src/Pure/16/symbolic/actions/format-text-strikethrough-symbolic.svg

<svg width="16" height="16" version="1.1" xmlns="http://www.w3.org/2000/svg">
 <path d="m1 7v1h14v-1z" color="#000000" fill="#363636" overflow="visible" stroke-width=".70711" style="font-feature-settings:normal;font-variant-alternates:normal;font-variant-caps:normal;font-variant-ligatures:normal;font-variant-numeric:normal;font-variant-position:normal;isolation:auto;mix-blend-mode:normal;shape-padding:0;text-decoration-color:#000000;text-decoration-line:none;text-decoration-style:solid;text-indent:0;text-orientation:mixed;text-transform:none"/>
 <path d="m4 3v1h6c1.108 0 2 0.892 2 2h1c0-1.662-1.338-3-3-3h-6zm-0.81836 6c-0.11095 0.31399-0.18164 0.64708-0.18164 1 0 1.662 1.338 3 3 3h6 1v-1-3h-1v3h-6c-1.108 0-2-0.892-2-2 0-0.36693 0.10429-0.705 0.27539-1h-1.0938z" fill="#363636"/>
</svg>

<?xml version="1.0" encoding="UTF-8" standalone="no"?>
<svg
   width="16"
   height="16"
   version="1.1"
   id="svg2"
   sodipodi:docname="format-text-strikethrough-symbolic.svg"
   inkscape:version="1.4.2 (ebf0e940d0, 2025-05-08)"
   xmlns:inkscape="http://www.inkscape.org/namespaces/inkscape"
   xmlns:sodipodi="http://sodipodi.sourceforge.net/DTD/sodipodi-0.dtd"
   xmlns="http://www.w3.org/2000/svg"
   xmlns:svg="http://www.w3.org/2000/svg">
  <defs
      id="defs2">
      <style id="current-color-scheme" type="text/css">
          .ColorScheme-Text { color:#363636; }
      </style>
  </defs>
  <sodipodi:namedview
     id="namedview2"
     pagecolor="#ffffff"
     bordercolor="#000000"
     borderopacity="0.25"
     inkscape:showpageshadow="2"
     inkscape:pageopacity="0.0"
     inkscape:pagecheckerboard="0"
     inkscape:deskcolor="#d1d1d1"
     inkscape:zoom="49.6875"
     inkscape:cx="8"
     inkscape:cy="8"
     inkscape:window-width="1920"
     inkscape:window-height="1010"
     inkscape:window-x="0"
     inkscape:window-y="0"
     inkscape:window-maximized="1"
     inkscape:current-layer="svg2" />
  <path
     id="path1"
     style="fill:currentColor"
     class="ColorScheme-Text"
     d="M 4 3 L 4 4 L 10 4 C 11.108 4 12 4.892 12 6 L 13 6 C 13 4.338 11.662 3 10 3 L 4 3 z M 1 7 L 1 8 L 15 8 L 15 7 L 1 7 z M 3.1816406 9 C 3.0706906 9.31399 3 9.64708 3 10 C 3 11.662 4.338 13 6 13 L 12 13 L 13 13 L 13 12 L 13 9 L 12 9 L 12 12 L 6 12 C 4.892 12 4 11.108 4 10 C 4 9.63307 4.1042906 9.295 4.2753906 9 L 3.1816406 9 z " />
</svg>
